X: 73
T: Aultre Venus
N: Derived from Ock3001-Aultre_Venus.krn
C: Johannes Ockeghem
%%abc-version 2.0
%%abcx-abcm2ps-target-version 5.9.1 (29 Sep 2008)
%%abc-creator hum2abc beta
%%abcx-conversion-date 2019/02/17 07:26:16
%%abc-edited-by Jesse Rodin
%%abc-edited-by Chris Gage 06-13-2012
%%abcx-initial-encoding-date 2015/10/29/
%%humdrum-veritas 2236707907
%%humdrum-veritas-data 3776984433
%%linebreak <none>
%%barnumbers 0
L: 1/4
M: 2/1
Q: 1/2=120
V: 1 clef=treble
V: 2 clef=treble-8
V: 3 clef=treble-8
K: Bb
[V:1] F8 | 
[V:2] B8 | 
[V:3] B,8 | 
[V:1] D4G4- | 
[V:2] B8 | 
[V:3] D4E4- | 
[V:1] G2FED4 | 
[V:2] B8 | 
[V:3] E2D2B,4 | 
[V:1] F4E4 | 
[V:2] d4c4 | 
[V:3] z4A,4 | 
[V:1] D2B,2C4 | 
[V:2] B4A2F2 | 
[V:3] B,4F4 | 
[V:1] B,2D2E2F2- | 
[V:2] G6F2 | 
[V:3] z2B,2C2D2 | 
[V:1] F2EDF3E | 
[V:2] B4A4- | 
[V:3] B,2D4E2 | 
[V:1] C4z2C2 | 
[V:2] A4A4 | 
[V:3] F4c4- | 
[V:1] F4G4 | 
[V:2] A4B3A | 
[V:3] c2d2=e4 | 
[V:1] A4A4 | 
[V:2] F8 | 
[V:3] f3=ed2c2 | 
[V:1] A6GA | 
[V:2] z4F4 | 
[V:3] d4c4 | 
[V:1] B4A2F2 | 
[V:2] G4F2D2 | 
[V:3] z2B2c2d2 | 
[V:1] G3F/G/A4 | 
[V:2] E4F4 | 
[V:3] B3A/G/F2A2 | 
[V:1] F2G3F/E/DC | 
[V:2] D2E2C2F2 | 
[V:3] B2G2c2A2 | 
[V:1] G4F2E2- | 
[V:2] E2B2A2G2- | 
[V:3] B2d2c2B2- | 
[V:1] E2D4C2 | 
[V:2] G2F2E4 | 
[V:3] B2A2G3A | 
[V:1] !fermata!D8 | 
[V:2] z2!fermata!D2F3G | 
[V:3] Bcd4B2 | 
[V:1] z8 | 
[V:2] A2B2A2B2- | 
[V:3] !fermata!A2G2F2G2- | 
[V:1] G4A4 | 
[V:2] B2G2^F4 | 
[V:3] G2E2D4 | 
[V:1] B4A2B2- | 
[V:2] G4z4 | 
[V:3] z2d2c2B2 | 
[V:1] B2AGF3/G/AB | 
[V:2] G3/A/Bcd2D2 | 
[V:3] G2FED2F2 | 
[V:1]  [K:F] c3AB2A2- | 
[V:2]  [K:F] z2d4c2- | 
[V:3]  [K:F] C2z2D2F2- | 
[V:1] AGG2z2F2- | 
[V:2] cBG2A3F | 
[V:3] F2G2D4 | 
[V:1] FGA4GF | 
[V:2] E2F2D4 | 
[V:3] C2c4B2 | 
[V:1] E2C2D4 | 
[V:2] C2c4=B2 | 
[V:3] c2C2G4 | 
[V:1] C4z4 | 
[V:2] c6A2 | 
[V:3] z2A4F2 | 
[V:1] F4G4 | 
[V:2] A4B3A | 
[V:3] c4d2c2 | 
[V:1] A8 | 
[V:2] F4z4 | 
[V:3] f3e/d/c4 | 
[V:1] A4A4 | 
[V:2] c2d2c2f2- | 
[V:3] F8 | 
[V:1] A4B2c2- | 
[V:2] f2F2D2E2 | 
[V:3] z2f4ed | 
[V:1] c2F4E2 | 
[V:2] F4C4 | 
[V:3] c2A2G4 | 
[V:1] D2C2F3G/A/ | 
[V:2] F4A2B2- | 
[V:3] A4c2d2- | 
[V:1] B3A/B/A2G2- | 
[V:2] B2G2c2C2 | 
[V:3] d2e6 | 
[V:1] GFF4E2 | 
[V:2] F4G4 | 
[V:3] c6B2 | 
[V:1] F8 |]  
[V:2] F8 |]  
[V:3] c8 |]  



